packages/design-system/site/assets/images/landing/img-icon-group.svg

<?xml version="1.0" encoding="UTF-8" standalone="no"?>
<svg width="380px" height="167px" viewBox="0 0 380 167" version="1.1" xmlns="http://www.w3.org/2000/svg" xmlns:xlink="http://www.w3.org/1999/xlink" xmlns:sketch="http://www.bohemiancoding.com/sketch/ns">
    <!-- Generator: Sketch 3.3.3 (12081) - http://www.bohemiancoding.com/sketch -->
    <title>Group</title>
    <desc>Created with Sketch.</desc>
    <defs></defs>
    <g id="Page-1" stroke="none" stroke-width="1" fill="none" fill-rule="evenodd" sketch:type="MSPage">
        <g id="desktop" sketch:type="MSArtboardGroup" transform="translate(-799.000000, -705.000000)">
            <g id="Group" sketch:type="MSLayerGroup" transform="translate(799.000000, 705.000000)">
                <g id="icon" transform="translate(123.000000, 10.000000)" sketch:type="MSShapeGroup">
                    <path d="M86.358341,13.1779263 L15.2752995,83.5882028 L46.1182488,114.627051 L116.900553,43.8064055 L86.358341,13.1779263" id="Fill-1" fill="#2ECBBE"></path>
                    <path d="M90.9113364,8.63990783 L93.8168664,5.77571429 C99.4032719,0.221658986 109.042442,-2.32322581 115.84977,3.37580645 C115.995346,3.49921659 124.78023,12.3607834 124.78023,12.3607834 C131.461751,19.0788479 131.294608,29.7142857 124.401613,36.5725346 L121.51765,39.436129 L90.9113364,8.63990783" id="Fill-2" fill="#2DA193"></path>
                    <path d="M121.022212,8.57221198 C118.616313,6.14834101 115.929447,3.4435023 115.84977,3.37580645 C109.042442,-2.32322581 99.4032719,0.221658986 93.8168664,5.77571429 L90.9113364,8.63990783 L105.966774,23.7882028 L121.022212,8.57221198" id="Fill-3" fill="#38BAAF"></path>
                    <path d="M90.9826267,8.57281106 L86.3086175,13.2024885 L116.900553,43.8064055 L121.406221,39.2947465 L90.9826267,8.57281106" id="Fill-4" fill="#95F7E4"></path>
                    <path d="M15.2752995,83.5882028 L30.8032104,99.3120123 L101.585515,28.4913671 L86.358341,13.1779263 L15.2752995,83.5882028 Z" id="Fill-5" fill="#80F1DB"></path>
                    <path d="M8.98497696,94.1343779 L0.419354839,121.532028 C-0.107235023,123.219631 -0.0437327189,125.091751 0.830921659,126.624793 C1.9721659,128.628111 4.02880184,129.730415 6.1459447,129.730415 C6.74981567,129.730415 7.35967742,129.641152 7.95456221,129.454839 C7.95456221,129.454839 26.665576,123.635991 35.6954839,120.804147 C39.7314747,119.540691 43.4469585,117.29235 46.4423502,114.301152 L15.6,83.2623041 C12.5494931,86.2828571 10.2628111,90.0432719 8.98497696,94.1343779 Z" id="Fill-7" fill="#39D8C5"></path>
                    <path d="M31.1892092,98.8583977 L15.6,83.2623041 C12.5494931,86.2828571 10.2628111,90.0432719 8.98497696,94.1343779 L0.419354839,121.532028 C-0.107235023,123.219631 -0.0437327189,125.091751 0.830921659,126.624793 C0.830921659,126.624793 1.70134821,128.100994 2.66178387,128.553969" id="Fill-8" fill="#95F8E4"></path>
                </g>
                <path d="M45.2345509,55.8523003 L21.8558419,40.2185343 C21.000826,39.6858875 20.3833551,40.2944535 20.3833551,40.2944535 L0.433958275,57.6236662 C-0.00389357731,57.9632407 6.02579338e-07,58.5424577 6.02579338e-07,58.5424577 L6.02579338e-07,80.0513471 C6.02579338e-07,80.1224152 0.0107095973,80.3613301 0.136540285,80.6133428 C0.257016476,80.8546833 0.512328645,81.0463003 0.512328645,81.0463003 L22.1914715,96.567279 C22.4886461,96.719845 22.6244556,96.7899428 22.9900218,96.7715088 C23.3553445,96.7533173 23.6508154,96.5097939 23.6508154,96.5097939 L41.7857678,81.5927726 C41.7857678,81.5927726 42.11799,81.3686535 42.1975773,80.8338237 L45.7429847,57.0417811 C45.7429847,57.0417811 45.7943392,56.7405301 45.6736197,56.4084748 C45.5636091,56.1052833 45.3501593,55.9437428 45.2345509,55.8523003 L45.2345509,55.8523003 Z M45.1182122,56.5074365 L24.1840747,73.3699769 L0.69146092,58.1245386 C0.73940801,58.0248492 0.92340801,57.8582152 0.92340801,57.8582152 L20.4656197,40.8632407 C20.4656197,40.8632407 21.057535,40.1651726 21.8908895,40.7875641 L44.6808472,56.0211173 C44.9804556,56.2214662 45.1182122,56.5074365 45.1182122,56.5074365 L45.1182122,56.5074365 Z M22.2124027,95.9317897 L0.991556158,80.7845854 C0.991556158,80.7845854 0.736000603,80.5876322 0.628423883,80.4365216 C0.461217534,80.2014875 0.487259862,79.8056407 0.487259862,79.8056407 L0.507217534,58.728496 C0.507217534,58.728496 0.510868327,58.5904833 0.520117005,58.5625897 L23.912699,73.7743131 L22.7240006,96.1440237 C22.4762334,96.1076407 22.2124027,95.9317897 22.2124027,95.9317897 L22.2124027,95.9317897 Z M45.2248154,57.1856152 L41.7667837,80.6371131 C41.6884133,81.145262 41.3425614,81.3841769 41.3425614,81.3841769 L23.6697995,95.8912833 C23.3536408,96.1180705 23.1915456,96.1255897 23.1915456,96.1255897 L24.3994715,73.7539386 L45.2367413,57.0277131 C45.2406355,57.0898067 45.2248154,57.1856152 45.2248154,57.1856152 L45.2248154,57.1856152 Z" id="Imported-Layers" fill="#56B786" sketch:type="MSShapeGroup"></path>
                <path d="M126.080489,0.136928892 L81.5706104,24.5699009 C81.5706104,24.5699009 81.0314281,24.8501438 81.0013393,25.4859616 C80.9697132,26.1536252 81.5086758,26.461541 81.5086758,26.461541 L126.037881,53.4134055 C126.037881,53.4134055 126.537531,53.7566812 127.126568,53.4393214 C127.715825,53.1221812 127.696279,52.5012981 127.696279,52.5012981 L127.721755,1.09405973 C127.721755,1.09405973 127.758872,0.532036369 127.217933,0.169872817 C126.676994,-0.192071108 126.080489,0.136928892 126.080489,0.136928892 L126.080489,0.136928892 Z M126.573989,0.504583098 L109.136989,26.1397887 L81.4981337,25.2973027 C81.4981337,25.2973027 81.5712692,24.9966345 82.3852038,24.5699009 L125.661223,0.827872817 C126.34404,0.470321415 126.573989,0.504583098 126.573989,0.504583098 L126.573989,0.504583098 Z M125.606975,52.6102326 L82.304601,26.4619803 C82.304601,26.4619803 81.5620449,26.0534756 81.5163627,25.7653261 L109.136989,26.579041 L126.603858,53.0580504 C126.375008,53.0580504 125.606975,52.6102326 125.606975,52.6102326 L125.606975,52.6102326 Z M127.276573,1.79400833 L127.276573,51.6937326 C127.308419,52.8340317 127.042232,52.9170504 127.042232,52.9170504 L109.548788,26.3660037 L127.030372,0.648657864 C127.329064,0.748148518 127.276573,1.79400833 127.276573,1.79400833 L127.276573,1.79400833 Z" id="Imported-Layers" fill="#D3547B" sketch:type="MSShapeGroup"></path>
                <path d="M86.5399828,141.269991 C86.5399828,154.121645 76.1216448,164.539983 63.2699914,164.539983 C50.4183381,164.539983 40,154.121645 40,141.269991 C40,128.418338 50.4183381,118 63.2699914,118 C76.1216448,118 86.5399828,128.418338 86.5399828,141.269991 L86.5399828,141.269991 Z M63.2699914,118.4654 C50.6751619,118.4654 40.4653998,128.675162 40.4653998,141.269991 C40.4653998,153.864607 50.6751619,164.07437 63.2699914,164.07437 C75.8646074,164.07437 86.074583,153.864607 86.074583,141.269991 C86.074583,128.675162 75.8646074,118.4654 63.2699914,118.4654 L63.2699914,118.4654 Z" id="Imported-Layers" fill="#F7B64B" sketch:type="MSShapeGroup"></path>
                <path d="M266.124254,129.916462 C266.54134,128.963786 267.322033,125.834342 264.298272,121.721794 C261.274789,117.608721 256.324527,114.630145 250.727247,113.877315 C245.129689,113.12501 242.598044,115.678349 241.554803,117.327752 C240.611446,118.818809 224.109009,149.996635 223.719128,150.805859 C223.307462,151.661077 223.389883,152.740958 223.389883,152.740958 C223.389883,152.740958 223.327235,156.380144 226.272883,159.660226 C229.545381,163.30434 233.01047,165.395926 238.28546,166.514444 C243.560451,167.632962 246.621647,165.172296 246.621647,165.172296 L246.625633,165.176099 C248.012743,164.095405 248.353067,163.240638 248.903055,162.310478 C249.609592,161.115398 265.707708,130.868752 266.124254,129.916462 L266.124254,129.916462 Z M249.479308,114.42694 C253.118292,114.532813 256.322496,115.971191 258.812479,117.497838 C261.057366,118.873962 264.25383,121.867529 265.417274,124.97746 C266.580997,128.086867 265.787864,131.374685 262.390481,132.67273 C258.993897,133.970528 255.057665,133.101537 252.772514,132.257555 C250.487641,131.413048 246.9434,129.619116 244.138788,126.284727 C241.334297,122.950739 241.181297,119.578383 242.134455,117.711044 C243.341943,115.34592 245.840324,114.321066 249.479308,114.42694 L249.479308,114.42694 Z M247.95317,162.668066 C247.184685,164.090148 246.060159,164.851525 246.060159,164.851525 C245.702391,165.085551 245.301474,165.290237 244.855299,165.460757 C241.458316,166.758679 237.522084,165.889688 235.237072,165.045443 C232.95206,164.201199 229.408219,162.407143 226.603467,159.073016 C224.858006,156.997431 224.139559,154.907632 224.075482,153.17486 C224.075482,153.17486 223.953561,151.780029 224.283331,151.184305 L240.925325,119.95307 C240.925325,119.95307 240.862677,123.592255 243.808064,126.8722 C247.080823,130.516451 250.546051,132.607775 255.820902,133.726556 C261.095892,134.845074 264.157228,132.384145 264.157228,132.384145 C264.157228,132.384145 248.61065,161.451616 247.95317,162.668066 L247.95317,162.668066 Z" id="Imported-Layers" fill="#7A90B2" sketch:type="MSShapeGroup"></path>
                <path d="M333.223181,47.4766791 L339.628028,22.6540149 C339.628028,22.6540149 339.711391,22.4083249 339.609749,22.1024577 C339.507102,21.7943987 339.278107,21.6284134 339.278107,21.6284134 L317.698884,5.20663483 C317.698884,5.20663483 317.464666,4.99980088 317.082806,5.00000014 C316.744736,5.00019941 316.472954,5.19985992 316.472954,5.19985992 L294.391146,22.2839854 C294.24712,22.3955721 294.066133,22.6189448 294.012701,22.930192 C293.959068,23.2416385 294.092648,23.4811514 294.092648,23.4811514 L304.89381,47.9857935 C305.001478,48.2298894 305.193312,48.3757492 305.193312,48.3757492 L317.383915,58.6130334 C317.383915,58.6130334 317.671967,58.8555352 318.022089,58.8415869 C318.425242,58.8254466 318.606028,58.6504946 318.606028,58.6504946 L332.864622,48.0372031 C332.864622,48.0372031 333.148657,47.8473064 333.223181,47.4766791 L333.223181,47.4766791 Z M339.155976,22.1735942 L315.280971,38.9729743 L294.526334,22.8887455 C294.526334,22.8887455 294.580971,22.5912474 294.88188,22.3591072 L316.481792,5.70638391 C316.481792,5.70638391 316.730273,5.46886361 317.113338,5.47304811 C317.411434,5.47623631 317.698281,5.72093003 317.698281,5.72093003 L338.87415,21.829668 C339.080648,22.0024282 339.155976,22.1735942 339.155976,22.1735942 L339.155976,22.1735942 Z M317.371059,58.0961477 L305.484378,48.0874171 C305.484378,48.0874171 305.328902,47.9859928 305.228666,47.7582363 L294.536779,23.4303396 L315.094963,39.3525684 L317.694465,58.2810629 C317.694465,58.2810629 317.521312,58.2276607 317.371059,58.0961477 L317.371059,58.0961477 Z M332.48698,47.8044651 L318.608037,58.1525389 C318.436089,58.2983987 318.109871,58.3380518 318.109871,58.3380518 L315.496709,39.3276607 L339.217845,22.6139632 C339.217242,22.6621846 339.188116,22.8098378 339.188116,22.8098378 L332.857592,47.2413507 C332.783268,47.5912548 332.48698,47.8044651 332.48698,47.8044651 L332.48698,47.8044651 Z" id="Imported-Layers" fill="#67BDFD" sketch:type="MSShapeGroup"></path>
                <path d="M319.567712,132.213132 C320.266162,132.753493 320.971017,132.472168 320.971017,132.472168 L367.799192,117.431505 L379.665522,100.54024 C379.665522,100.54024 380.090082,100.01283 379.835102,99.2432521 C379.579817,98.4736738 378.863067,98.2908424 378.863067,98.2908424 L331.634122,83.0742762 C331.634122,83.0742762 331.255007,82.9303003 330.765177,83.0432521 C330.199097,83.173975 329.885557,83.637228 329.885557,83.637228 L320.116712,97.6209629 C319.854412,97.9763846 319.846177,98.4275894 319.846177,98.4275894 L319.002547,131.003794 C319.002547,131.003794 318.929347,131.719457 319.567712,132.213132 L319.567712,132.213132 Z M320.073402,131.587529 C319.571067,131.229698 319.687882,130.125782 319.687882,130.125782 L320.476002,98.7013846 C320.476002,98.7013846 320.487592,98.4348183 320.564757,98.2408424 L366.458107,117.217951 L321.680142,131.594758 C321.680142,131.594758 320.586717,131.953192 320.073402,131.587529 L320.073402,131.587529 Z M379.160442,99.5092159 C379.266277,100.051987 378.664817,100.856505 378.664817,100.856505 L367.347487,116.954698 L320.911237,97.7025894 L330.142977,84.3507822 C330.142977,84.3507822 330.458957,83.8480713 330.907002,83.7396376 C331.401102,83.6203605 331.813157,83.7962641 331.813157,83.7962641 L377.905062,98.6074087 C377.905062,98.6074087 379.033562,98.8568063 379.160442,99.5092159 L379.160442,99.5092159 Z" id="Imported-Layers" fill="#C97DD4" sketch:type="MSShapeGroup"></path>
            </g>
        </g>
    </g>
</svg>

<svg width="380" height="167" xmlns="http://www.w3.org/2000/svg"><g fill="none" fill-rule="evenodd"><path d="M209.358 23.178l-71.083 70.41 30.843 31.04L239.9 53.805l-30.54-30.627" fill="#2ECBBE"/><path d="M213.91 18.64l2.907-2.864c5.586-5.554 15.225-8.1 22.033-2.4.145.123 8.93 8.985 8.93 8.985 6.682 6.72 6.515 17.355-.378 24.214l-2.884 2.863L213.91 18.64" fill="#2DA193"/><path d="M244.022 18.572c-2.406-2.424-5.093-5.128-5.172-5.196-6.808-5.7-16.447-3.154-22.033 2.4l-2.906 2.864 15.058 15.148 15.055-15.216" fill="#38BAAF"/><path d="M213.983 18.573l-4.674 4.63 30.59 30.603 4.505-4.51-30.423-30.723" fill="#95F7E4"/><path d="M138.275 93.588l15.528 15.724 70.783-70.82-15.228-15.314-71.083 70.41z" fill="#80F1DB"/><path d="M131.985 104.134l-8.566 27.398c-.528 1.688-.465 3.56.41 5.093 1.14 2.003 3.2 3.105 5.315 3.105.604 0 1.214-.09 1.81-.275 0 0 18.71-5.82 27.74-8.65 4.035-1.264 7.75-3.513 10.746-6.504L138.6 93.264c-3.05 3.02-5.337 6.78-6.615 10.872z" fill="#39D8C5"/><path d="M154.19 108.858L138.6 93.262c-3.05 3.02-5.337 6.78-6.615 10.872l-8.566 27.398c-.528 1.688-.465 3.56.41 5.093 0 0 .87 1.476 1.83 1.93" fill="#95F8E4"/><path d="M45.235 55.852L21.855 40.22c-.854-.534-1.472.074-1.472.074L.433 57.624c-.437.34-.433.918-.433.918v21.51c0 .07.01.31.137.56.12.243.375.434.375.434l21.68 15.52c.297.154.432.224.798.206.365-.02.66-.262.66-.262l18.136-14.917s.332-.224.412-.76l3.545-23.79s.05-.302-.07-.635c-.11-.303-.323-.464-.438-.556zm-.117.655L24.184 73.37.69 58.125c.05-.1.233-.267.233-.267l19.543-16.995s.592-.698 1.425-.075L44.68 56.02c.3.2.438.487.438.487zM22.212 95.932L.992 80.785s-.256-.197-.364-.348c-.167-.236-.14-.63-.14-.63l.02-21.08s.003-.137.012-.164l23.393 15.21-1.19 22.37c-.247-.035-.51-.21-.51-.21zm23.013-38.746l-3.458 23.45c-.08.51-.424.748-.424.748L23.67 95.89c-.316.228-.478.236-.478.236L24.4 73.754l20.837-16.726c.004.062-.012.158-.012.158z" fill="#56B786"/><path d="M126.08.137L81.57 24.57s-.54.28-.57.916c-.03.668.51.976.51.976l44.528 26.95s.5.345 1.09.027c.588-.32.568-.94.568-.94l.026-51.407s.037-.562-.504-.924c-.54-.363-1.138-.034-1.138-.034zm.494.368L109.137 26.14l-27.64-.843s.074-.3.888-.727L125.66.828c.684-.358.914-.323.914-.323zm-.967 52.105L82.305 26.462s-.743-.41-.79-.697l27.622.814 17.467 26.477c-.23 0-.997-.448-.997-.448zm1.67-50.816v49.9c.03 1.14-.235 1.223-.235 1.223l-17.493-26.55L127.03.647c.3.1.247 1.145.247 1.145z" fill="#D3547B"/><path d="M86.54 141.27c0 12.852-10.418 23.27-23.27 23.27S40 154.122 40 141.27 50.418 118 63.27 118s23.27 10.418 23.27 23.27zm-23.27-22.805c-12.595 0-22.805 10.21-22.805 22.805 0 12.595 10.21 22.804 22.805 22.804 12.595 0 22.805-10.21 22.805-22.804 0-12.595-10.21-22.805-22.805-22.805z" fill="#F7B64B"/><path d="M266.124 129.916c.417-.952 1.198-4.082-1.826-8.194-3.023-4.113-7.973-7.092-13.57-7.845-5.598-.752-8.13 1.8-9.173 3.45-.944 1.492-17.446 32.67-17.836 33.48-.414.854-.33 1.934-.33 1.934s-.064 3.64 2.882 6.92c3.272 3.645 6.737 5.737 12.012 6.855 5.275 1.12 8.337-1.342 8.337-1.342l.005.004c1.387-1.08 1.727-1.935 2.277-2.866.707-1.194 16.805-31.44 17.22-32.393zm-16.645-15.49c3.637.107 6.84 1.545 9.33 3.072 2.246 1.376 5.443 4.37 6.606 7.48 1.164 3.11.37 6.397-3.027 7.695-3.397 1.298-7.333.43-9.618-.415s-5.83-2.64-8.634-5.973c-2.806-3.334-2.96-6.707-2.006-8.574 1.208-2.363 3.706-3.39 7.345-3.282zm-1.528 48.242c-.768 1.422-1.893 2.184-1.893 2.184-.36.234-.76.438-1.206.61-3.397 1.297-7.333.428-9.618-.417-2.285-.844-5.83-2.638-8.634-5.972-1.745-2.076-2.463-4.165-2.528-5.898 0 0-.12-1.395.208-1.99l16.642-31.232s-.062 3.64 2.883 6.92c3.273 3.643 6.738 5.735 12.013 6.854 5.276 1.118 8.337-1.343 8.337-1.343s-15.546 29.068-16.204 30.284z" fill="#7A90B2"/><path d="M333.223 47.477l6.405-24.823s.083-.246-.018-.552c-.103-.308-.332-.474-.332-.474l-21.58-16.42S317.466 5 317.084 5c-.338 0-.61.2-.61.2L294.39 22.284c-.143.112-.324.335-.377.646-.054.312.08.55.08.55l10.8 24.506c.108.244.3.39.3.39l12.19 10.237s.29.243.64.23c.402-.018.583-.193.583-.193l14.26-10.613s.283-.19.357-.56zm5.933-25.303l-23.875 16.8-20.753-16.085s.055-.3.356-.53l21.6-16.655s.248-.237.63-.233c.3.003.586.248.586.248l21.175 16.11c.207.172.282.344.282.344zM317.37 58.096l-11.886-10.01s-.155-.1-.255-.328L294.535 23.43l20.558 15.923 2.6 18.928s-.174-.05-.324-.183zm15.117-10.292l-13.88 10.35c-.17.144-.497.184-.497.184l-2.613-19.01 23.72-16.714c0 .048-.03.196-.03.196l-6.33 24.43c-.074.35-.37.564-.37.564z" fill="#67BDFD"/><path d="M319.568 132.213c.698.54 1.403.26 1.403.26l46.83-15.04 11.867-16.893s.424-.527.17-1.297c-.256-.77-.973-.952-.973-.952l-47.23-15.215s-.378-.144-.868-.03c-.566.13-.88.593-.88.593l-9.768 13.984c-.263.356-.27.808-.27.808l-.844 32.576s-.074.715.565 1.21zm.505-.625c-.502-.358-.385-1.462-.385-1.462l.788-31.425s.012-.264.09-.46l45.892 18.98-44.778 14.376s-1.093.358-1.607-.007zm59.087-32.08c.106.544-.495 1.35-.495 1.35l-11.318 16.097-46.436-19.252 9.234-13.352s.316-.5.764-.61c.494-.12.906.057.906.057l46.092 14.81s1.13.25 1.255.903z" fill="#C97DD4"/></g></svg>
